X: 1
T: Carplay
C: Ed Pearlman 2000
R: reel
Z: 2012 John Chambers <jc:trillian.mit.edu>
M: C|
L: 1/8
K: Ador
E2 |\
"Am"A2AB c2EF | "G"G2G,A, B,DDE | "Am"A2AB cBce | "G"dBgB BAGB |
"Am"A2AB c2EF | "G"G2G,A, B,DDE | "Am"AGAB "F"cBce | "G"dBgB "Am"A2 :|
|: AG |\
"D"F2FA "G"G3B | "Am"cBed cBAG | "Bm"F2FA "C"G2GB | "Am"cBAG A2AG |
"D"F2FA "G"G3B | "Am"cBed cBAG | "F"AGAB "Dm"cBce | "G"dBgB "Am"A2 :|
